icon-themes/breeze_svg/cmd/lc_titleparastyle.svg

<svg viewBox="0 0 24 24" xmlns="http://www.w3.org/2000/svg"><path d="m4 4v2h6v14h2v-14h6v-2z" fill="#4d4d4d"/><path d="m18.597656 12-2.597656 2.052734.822266 1.017578.925781-.740234c.110344-.087551.308578-.269887.591797-.550781l-.027344.830078-.017578.761719v4.628906h1.705078v-8z" fill="#1d99f3"/></svg>

<svg xmlns="http://www.w3.org/2000/svg" viewBox="0 0 24 24">
 <path 
     style="fill:#4d4d4d" 
     d="M 4 4 L 4 6 L 10 6 L 10 20 L 12 20 L 12 6 L 18 6 L 18 4 L 4 4 z "
     />
 <path 
     style="fill:#1d99f3" 
     d="M 18.597656 12 L 16 14.052734 L 16.822266 15.070312 L 17.748047 14.330078 C 17.858391 14.242527 18.056625 14.060191 18.339844 13.779297 L 18.3125 14.609375 L 18.294922 15.371094 L 18.294922 20 L 20 20 L 20 12 L 18.597656 12 z "
     />
 </svg>
